X:64
T:Stop Waltz
C:No 64 Wm Clarke MS Feltwell, Norfolk
N:In MS quavers beamed in groups of six.
N:Rests added at start of each strain
N:No indication of lenght of stop
I:abc2nwc
M:3/4
L:1/8
K:C
"^*"zG EF|Ge eG GE|Fd dB GE|FA Gc Bd|
ce gc' ge|Ge eG GE|Fd dB GE|FA Gc Bd|c2:|
|:z2"^*"zG|(GB) (Bd) (df)|(fa) (ag) (ge)|c3/2B/2 ce dB|ce Gc GE|
(GB) (Bd) (df)|(fa) (ag) (ge)|c3/2B/2 ce dB|c2:|
|:"^*"zG cd|e2zG EG|c2zc de|f2zE DE|D2z2gf|
(fe) (e2f3/2)e/2|(ed) d2e3/2d/2|c3/2B/2 ce dB|c2:|
"^*"z2G2|(GB) (Bd) (df)|(Gc) (ce) (eg)|"^Dead stop"z6|z6|
z2"^*"zG cd|e2zG EG|c2zc de|f2zE DE|
D2z2g3/2f/2|(fe) e2f3/2e/2|(ed) d2e3/2d/2|c3/2B/2 ca gB|c3|]

